X: 31953
T: Pearl Wedding, The
R: reel
M: 4/4
K: Dmajor
|:D2DE DFAd|f2fe dBBd|FAAB AFAd|ceef ecAF|
D2DE DFAd|f2fe dBBd|FAAB AFAd|1 ceec d2d2:|2 ceec d2fg||

